svgs/sharp-thin/window-maximize.svg

<svg xmlns="http://www.w3.org/2000/svg" viewBox="0 0 512 512"><!--! Font Awesome Pro 6.6.0 by @fontawesome - https://fontawesome.com License - https://fontawesome.com/license (Commercial License) Copyright 2024 Fonticons, Inc. --><path d="M19.2 51.2l0 124.8 473.6 0 0-124.8-473.6 0zm0 140.8l0 268.8 473.6 0 0-268.8L19.2 192zM0 32l19.2 0 473.6 0L512 32l0 19.2 0 409.6 0 19.2-19.2 0L19.2 480 0 480l0-19.2L0 51.2 0 32z"/></svg>

<svg xmlns="http://www.w3.org/2000/svg" viewBox="0 0 512 512"><!--! Font Awesome Pro 6.5.2 by @fontawesome - https://fontawesome.com License - https://fontawesome.com/license (Commercial License) Copyright 2024 Fonticons, Inc. --><path d="M19.2 51.2V176H492.8V51.2H19.2zm0 140.8V460.8H492.8V192H19.2zM0 32H19.2 492.8 512V51.2 460.8 480H492.8 19.2 0V460.8 51.2 32z"/></svg>
